raycast/extensions/amzn-raycast-extension/assets/four.svg

<svg width="16" height="16" viewBox="0 0 16 16" fill="none" xmlns="http://www.w3.org/2000/svg">
<rect x="1.5" y="1.5" width="13" height="13" rx="3.5" stroke="white"/>
<path fill-rule="evenodd" clip-rule="evenodd" d="M9.25256 3.77904C9.51874 3.86219 9.69998 4.10869 9.69998 4.38754V9.27502H10.7625C11.1146 9.27502 11.4 9.56043 11.4 9.91251C11.4 10.2646 11.1146 10.55 10.7625 10.55H9.69998V11.6125C9.69998 11.9646 9.41456 12.25 9.06248 12.25C8.7104 12.25 8.42499 11.9646 8.42499 11.6125V10.55H5.2375C5.00039 10.55 4.78287 10.4184 4.67282 10.2084C4.56278 9.99835 4.57839 9.7446 4.71336 9.54964L8.53834 4.02467C8.69707 3.7954 8.98639 3.6959 9.25256 3.77904ZM8.42499 9.27502V6.42834L6.45421 9.27502H8.42499Z" fill="white"/>
</svg>

<svg width="16" height="16" fill="none" xmlns="http://www.w3.org/2000/svg"><rect x="1.5" y="1.5" width="13" height="13" rx="3.5" stroke="#fff"/><path fill-rule="evenodd" clip-rule="evenodd" d="M9.253 3.779c.266.083.447.33.447.609v4.887h1.063a.637.637 0 110 1.275H9.7v1.063a.637.637 0 11-1.275 0V10.55H5.237a.638.638 0 01-.524-1l3.825-5.525a.638.638 0 01.715-.246zm-.828 5.496V6.428l-1.97 2.847h1.97z" fill="#fff"/></svg>
